X: 1041
T:The Orange Rogue (A20)
N: page A20
N: heptatonic
R: Jig
N:"Collected by Cronin"
B:O'Neill's 837
Z:Transcribed by Dan G. Petersen, dangp@post6.tele.dk
M:6/8
L:1/8
K:Em
d|"Em"(e/f/g)e "D"dBA|"Em"GEF G2A|"D"BAB def|"Em"g2b agf|\
(e/f/g)e "D"dBA|"Em"GEF G2A|"Bm"BAB dcd|"Em"e3 e2::
f|"Em"~g2e "Am"a2f|"Em"~g2B Bcd|g2e "Am"c'af|"Em"Tg3 B2d|\
g2e "Am"a2f|"Em"g2e fed|"D"BAB def|"Em"g2b agf|
|(e/f/g)e dBA|GEF G2A|"D"BAB def|"Em"g2b agf|\
(e/f/g)e dBA|GEF G2A|"D"BAB dcd|"Em"e3 e2:|
